X: 875
T: Saturday Night Breakdown
B: jims roots
M:4/4
L:1/8
Q: 1/4=100
K:C
V:1 
e2 f2 |: "C"g^fga ag e2 | c2 G2 E4 | "G"FEFE DEFG | AGG^F G2 ef |
"C"g^fga ag e2 | c2 G2 E3E | "G"FEFd dc B2 |[1 "C"c4 e2 f2:| [2 "C"c6 AB||
|: "C"cBAG EGAB | cBAG E3E | "G"FEFE DEFG | "C"AGG^F G2 AB |
"C"cBAG EGAB | cBAG E3E | "G"FEFd dc B2 |[1 "C"c6 AB:| [2 "C"c8||
% abcbook-tune_id 6298c2871e0bacf32cdcc83d


% abcbook-boost 0
% abcbook-tablature 
% abcbook-transpose 
% abcbook-lastupdated 1654178440215
% abcbook-soundfonts 
% abcbook-repeats 1


